!!!SOCIAL_FUNCTION:	unclassified songs
!!!PDT:	1909
!!!OTL: No_147_I_Am_as_Brave_as_Other_Men.krn
!!!REG: Great_Lakes
!!!LANG: Non-Tone
!!!LING_GROUP: Algonquin
**kern
*staff1
=1-
*clefF4
*k[]
*M2/4
4d\
4d\
=2
4c#\
4cn\
=3
4A\
8A\L
[8c\J
=4
8c\L]
8A\J
8.A\L
16c\Jk
=5
8A\L
8A\J
8A\L
8A\J
=6||
*M3/4
2.A\
=7
8A\L
8A\J
8A\L
8A\J
8A\L
8G\J
=8
B-q/
8G\L
8G\J
8F\L
8F\J
4D\
=9
8D\L
8E\J
8F\L
8D\J
4D\
=10
Fq/
8D\L
8D\J
8C/L
8C/J
4C/
=11
8D\L
8D\J
8D\L
8D\J
16C/LL
16C/
16C/
16C/JJ
=12
8AA/L
8AA/J
2AA/
=13
2.AA/
==
*-
